X:1
T:Til konsul Axel Heiberg
T:Sangen
T:Oscar Borg
C:Sigurd Lie
Z:Andres Aas
%%score [ 1 2 3 4 ]
L:1/8
Q:1/4=60
M:3/4
K:D
V:1 treble-8 nm="T1"
V:2 treble-8 nm="T2"
V:3 bass nm="Baryton"
V:4 bass nm="Bass"
V:1
"^Moderato"!p! A3/2 A/ B3 c |!<(! d3/2 e/!<)! f4 |!ff! d3/2 c/ B A c d | e4- e z | %4
w: San- gen er ei|ung i nord;|den gik rundt om kjæm- pe-|bord, _|
!p! A3/2 A/ B3 c |!<(! d3/2 e/ f4!<)! |!ff! e3/2 e/ e c e (d/B/) | A4 z2 | %8
w: der hvor sværd og|skjol- de klang,|brus- te og- saa skal- de- *|sang.|
!p! c3/2 B/ A!pp! A (B/A/) (B/c/) | (df) A2 z2 | c3/2 B/ A!pp! A (B/A/) (B/c/) | (df) A2 z2 | %12
w: skul- de mø- en dan- * sen _|træ- * de,|maat- te he- le la- * get _|kvæ- * de;|
!ff! d4 e2 | f3/2 f/ !fermata!f4 |!p! B (f/e/) d2 c2 | d4 z2 |] %16
w: sang var|Nor- dens lyst,|sang var _ Nor- dens|lyst!|
V:2
!p! F3/2 F/ G3 A |!<(! A3/2 A/!<)! d4 |!ff! d3/2 c/ B A A A | c4- c z |!p! F3/2 F/ G3 A | %5
w: San- gen er ei|ung i nord;|den gik rundt om kjæm- pe-|bord, _|der hvor sværd og|
!<(! A3/2 A/ d4!<)! |!ff! c3/2 c/ c c ^G G | E4!p! B3/2 A/ | G3!pp! G G (G/A/) | %9
w: skjol- de klang,|brus- te og- saa skal- de-|sang. Skul- de|mø- en dan- sen _|
 (Ad) F2!p! B3/2 A/ | G3!pp! G G (G/A/) | (Ad) F2 z2 |!ff! d4 B2 | c3/2 c/ !fermata!c4 | %14
w: træ- * de, maat- te|he- le la- get _|kvæ- * de;|sang var|Nor- dens lyst,|
!p! B B A2 A2 | A4 z2 |] %16
w: sang var Nor- dens|lyst!|
V:3
!p! D,3/2 D,/ G,3 E, |!<(! F,3/2 G,/!<)! A,4 |!ff! B,3/2 A,/ G, F, G, F, | A,4- A, z | %4
w: San- gen er ei|ung i nord;|den gik rundt om kjæm- pe-|bord, _|
!p! D,3/2 D,/ G,3 E, |!<(! F,3/2 G,/ A,4!<)! |!ff! A,3/2 A,/ A, A, B, (E,/D,/) | C,4!p! G,3/2 F,/ | %8
w: der hvor sværd og|skjol- de klang,|brus- te og- saa skal- de- *|sang. Skul- de|
 E,3!pp! E, E, E, | (F,A,) D,2!p! G,3/2 F,/ | E,3!pp! E, E, E, | (F,A,) D,2 z2 |!ff! F,4 B,2 | %13
w: mø- en dan- sen|træ- * de, maat- te|he- le la- get|kvæ- * de;|sang var|
 ^A,3/2 A,/ !fermata!A,4 |!p! B, G, F,2 E,2 | F,4 z2 |] %16
w: Nor- dens lyst,|sang var Nor- dens|lyst!|
V:4
!p! D,3/2 D,/ D,3 D, |!<(! D,3/2 D,/!<)! D,4 |!ff! B,3/2 A,/ G, F, E, D, | A,,4- A,, z | %4
w: San- gen er ei|ung i nord;|den gik rundt om kjæm- pe-|bord, _|
!p! D,3/2 D,/ D,3 D, |!<(! D,3/2 D,/ D,4!<)! |!ff! E,3/2 E,/ E, E, E, E, | A,,4 z2 | %8
w: der hvor sværd og|skjol- de klang,|brus- te og- saa skal- de-|sang.|
!p! A,,3/2 B,,/ C,!pp! C, (B,,/C,/) (B,,/A,,/) | D,2 D,2 z2 | %10
w: skul- de mø- en dan- * sen _|træ- de,|
 A,,3/2 B,,/ C,!pp! C, (B,,/C,/) (B,,/A,,/) | D,2 D,2 z2 |!ff! B,,4 G,2 | F,3/2 F,/ !fermata!F,4 | %14
w: maat- te he- le la- * get _|kvæ- de;|sang var|Nor- dens lyst,|
"_\nSamme slægt og samme vis; sang er endnu Nordens pris; \nden har hjem i bondens dal, den er gjæst i kongens sal;\nskovens røst og elvens tunge lærer folket selv at sjunge;\nsang er Nordens lyst, sang er Nordens lyst!\n\nAlt hvad herlight er i Nord faar i tonekvadet ord:\nKjærlighed til hjem og bruyd, troskab imod drot og Gud.\nalt hvad hjertet dybest huser, gjennem sangens strømning bruser.\nSang er Nordens lyst, sang er Nordens lyst!\n\nK. A. Jensen"!p! G, G,, A,,2 A,,2 | %15
w: sang var Nor- dens|
 D,4 z2 |] %16
w: lyst!|

